assets/printer.svg

<svg xmlns="http://www.w3.org/2000/svg" fill="none" viewBox="0 0 28 25">
  <path fill="#2A2238" fill-rule="evenodd" d="M6.27513 1.02513C6.9315.368749 7.82174 0 8.75 0h10.5c.9283 0 1.8185.368749 2.4749 1.02513C22.3813 1.6815 22.75 2.57174 22.75 3.5V7h1.75c.9283 0 1.8185.36875 2.4749 1.02513C27.6313 8.6815 28 9.57174 28 10.5v5.25c0 .9283-.3687 1.8185-1.0251 2.4749-.6564.6564-1.5466 1.0251-2.4749 1.0251h-1.75V21c0 .9283-.3687 1.8185-1.0251 2.4749-.6564.6564-1.5466 1.0251-2.4749 1.0251H8.75c-.92826 0-1.8185-.3687-2.47487-1.0251C5.61875 22.8185 5.25 21.9283 5.25 21v-1.75H3.5c-.92826 0-1.8185-.3687-2.47487-1.0251C.368749 17.5685 0 16.6783 0 15.75V10.5c0-.92826.368749-1.8185 1.02513-2.47487C1.6815 7.36875 2.57174 7 3.5 7h1.75V3.5c0-.92826.36875-1.8185 1.02513-2.47487Zm1.23743 1.23743C7.18437 2.59075 7 3.03587 7 3.5V7h14V3.5c0-.46413-.1844-.90925-.5126-1.23744-.3282-.32819-.7733-.51256-1.2374-.51256H8.75c-.46413 0-.90925.18437-1.23744.51256ZM6.27513 13.2751C6.9315 12.6187 7.82174 12.25 8.75 12.25h10.5c.9283 0 1.8185.3687 2.4749 1.0251.6564.6564 1.0251 1.5466 1.0251 2.4749v1.75h1.75c.4641 0 .9092-.1844 1.2374-.5126.3282-.3282.5126-.7733.5126-1.2374V10.5c0-.4641-.1844-.90925-.5126-1.23744C25.4092 8.93437 24.9641 8.75 24.5 8.75h-21c-.46413 0-.90925.18437-1.23744.51256C1.93437 9.59075 1.75 10.0359 1.75 10.5v5.25c0 .4641.18437.9092.51256 1.2374.32819.3282.77331.5126 1.23744.5126h1.75v-1.75c0-.9283.36875-1.8185 1.02513-2.4749ZM21 21v-5.25c0-.4641-.1844-.9092-.5126-1.2374C20.1592 14.1844 19.7141 14 19.25 14H8.75c-.46413 0-.90925.1844-1.23744.5126C7.18437 14.8408 7 15.2859 7 15.75V21c0 .4641.18437.9092.51256 1.2374.32819.3282.77331.5126 1.23744.5126h10.5c.4641 0 .9092-.1844 1.2374-.5126C20.8156 21.9092 21 21.4641 21 21ZM4.99372 13.7437c-.1641.1641-.38666.2563-.61872.2563-.23206 0-.45462-.0922-.61872-.2563-.16409-.1641-.25628-.3866-.25628-.6187 0-.2321.09219-.4546.25628-.6187.1641-.1641.38666-.2563.61872-.2563.23206 0 .45462.0922.61872.2563.16409.1641.25628.3866.25628.6187 0 .2321-.09219.4546-.25628.6187Z" clip-rule="evenodd"/>
</svg>

<svg width="28" height="25" viewBox="0 0 28 25" fill="none" xmlns="http://www.w3.org/2000/svg">
<path fill-rule="evenodd" clip-rule="evenodd" d="M6.27513 1.02513C6.9315 0.368749 7.82174 0 8.75 0H19.25C20.1783 0 21.0685 0.368749 21.7249 1.02513C22.3813 1.6815 22.75 2.57174 22.75 3.5V7H24.5C25.4283 7 26.3185 7.36875 26.9749 8.02513C27.6313 8.6815 28 9.57174 28 10.5V15.75C28 16.6783 27.6313 17.5685 26.9749 18.2249C26.3185 18.8813 25.4283 19.25 24.5 19.25H22.75V21C22.75 21.9283 22.3813 22.8185 21.7249 23.4749C21.0685 24.1313 20.1783 24.5 19.25 24.5H8.75C7.82174 24.5 6.9315 24.1313 6.27513 23.4749C5.61875 22.8185 5.25 21.9283 5.25 21V19.25H3.5C2.57174 19.25 1.6815 18.8813 1.02513 18.2249C0.368749 17.5685 0 16.6783 0 15.75V10.5C0 9.57174 0.368749 8.6815 1.02513 8.02513C1.6815 7.36875 2.57174 7 3.5 7H5.25V3.5C5.25 2.57174 5.61875 1.6815 6.27513 1.02513ZM7.51256 2.26256C7.18437 2.59075 7 3.03587 7 3.5V7H21V3.5C21 3.03587 20.8156 2.59075 20.4874 2.26256C20.1592 1.93437 19.7141 1.75 19.25 1.75H8.75C8.28587 1.75 7.84075 1.93437 7.51256 2.26256ZM6.27513 13.2751C6.9315 12.6187 7.82174 12.25 8.75 12.25H19.25C20.1783 12.25 21.0685 12.6187 21.7249 13.2751C22.3813 13.9315 22.75 14.8217 22.75 15.75V17.5H24.5C24.9641 17.5 25.4092 17.3156 25.7374 16.9874C26.0656 16.6592 26.25 16.2141 26.25 15.75V10.5C26.25 10.0359 26.0656 9.59075 25.7374 9.26256C25.4092 8.93437 24.9641 8.75 24.5 8.75H3.5C3.03587 8.75 2.59075 8.93437 2.26256 9.26256C1.93437 9.59075 1.75 10.0359 1.75 10.5V15.75C1.75 16.2141 1.93437 16.6592 2.26256 16.9874C2.59075 17.3156 3.03587 17.5 3.5 17.5H5.25V15.75C5.25 14.8217 5.61875 13.9315 6.27513 13.2751ZM21 21V15.75C21 15.2859 20.8156 14.8408 20.4874 14.5126C20.1592 14.1844 19.7141 14 19.25 14H8.75C8.28587 14 7.84075 14.1844 7.51256 14.5126C7.18437 14.8408 7 15.2859 7 15.75V21C7 21.4641 7.18437 21.9092 7.51256 22.2374C7.84075 22.5656 8.28587 22.75 8.75 22.75H19.25C19.7141 22.75 20.1592 22.5656 20.4874 22.2374C20.8156 21.9092 21 21.4641 21 21ZM4.99372 13.7437C4.82962 13.9078 4.60706 14 4.375 14C4.14294 14 3.92038 13.9078 3.75628 13.7437C3.59219 13.5796 3.5 13.3571 3.5 13.125C3.5 12.8929 3.59219 12.6704 3.75628 12.5063C3.92038 12.3422 4.14294 12.25 4.375 12.25C4.60706 12.25 4.82962 12.3422 4.99372 12.5063C5.15781 12.6704 5.25 12.8929 5.25 13.125C5.25 13.3571 5.15781 13.5796 4.99372 13.7437Z" fill="#2A2238"/>
</svg>
